assets/Star of david/Flat/star_of_david_flat.svg

<svg width="32" height="32" viewBox="0 0 32 32" fill="none" xmlns="http://www.w3.org/2000/svg">
<path d="M30 26C30 28.2091 28.2091 30 26 30H6C3.79086 30 2 28.2091 2 26V6C2 3.79086 3.79086 2 6 2H26C28.2091 2 30 3.79086 30 6V26Z" fill="#8D65C5"/>
<path d="M12.8246 10.5L15.134 6.5C15.5189 5.83333 16.4812 5.83333 16.8661 6.5L19.1754 10.5L23.7942 10.5C24.564 10.5 25.0452 11.3333 24.6603 12L22.3509 16L24.6603 20C25.0452 20.6667 24.5641 21.5 23.7943 21.5H19.1754L16.866 25.5C16.4811 26.1666 15.5189 26.1666 15.134 25.5L12.8246 21.5H8.2058C7.436 21.5 6.95488 20.6667 7.33978 20L9.64918 16L7.33975 12C6.95485 11.3333 7.43598 10.5 8.20578 10.5L12.8246 10.5ZM14.5567 10.5H17.4434L16 8L14.5567 10.5ZM10.5152 14.5L11.9586 12H9.0718L10.5152 14.5ZM11.3812 16L13.6906 20H18.3094L20.6188 16L18.3094 12H13.6907L11.3812 16ZM10.5152 17.5L9.07183 20H11.9586L10.5152 17.5ZM14.5567 21.5L16 24L17.4434 21.5H14.5567ZM20.0414 20H22.9282L21.4848 17.5L20.0414 20ZM21.4848 14.5L22.9282 12H20.0415L21.4848 14.5Z" fill="white"/>
</svg>

<svg xmlns="http://www.w3.org/2000/svg" width="32" height="32" fill="none"><path fill="#8D65C5" d="M30 26a4 4 0 0 1-4 4H6a4 4 0 0 1-4-4V6a4 4 0 0 1 4-4h20a4 4 0 0 1 4 4v20Z"/><path fill="#fff" d="m12.825 10.5 2.309-4a1 1 0 0 1 1.732 0l2.31 4h4.618a1 1 0 0 1 .866 1.5l-2.31 4 2.31 4a1 1 0 0 1-.866 1.5h-4.619l-2.309 4a1 1 0 0 1-1.732 0l-2.31-4H8.207A1 1 0 0 1 7.34 20l2.31-4-2.31-4a1 1 0 0 1 .866-1.5h4.619Zm1.732 0h2.886L16 8l-1.443 2.5Zm-4.042 4L11.96 12H9.072l1.443 2.5Zm.866 1.5 2.31 4h4.618l2.31-4-2.31-4h-4.618l-2.31 4Zm-.866 1.5L9.072 20h2.887l-1.444-2.5Zm4.042 4L16 24l1.443-2.5h-2.886ZM20.04 20h2.887l-1.443-2.5L20.04 20Zm1.444-5.5 1.443-2.5h-2.887l1.444 2.5Z"/></svg>
